X:1
T:Stabat mater - Pergolesi
T:James Gibb editions
T:#
%%score [ 1 2 ] { ( 3 4 ) | ( 5 6 ) }
L:1/8
Q:1/4=72
M:4/4
K:C
V:1 treble nm="S" snm="S"
V:2 treble nm="A" snm="A"
V:3 treble nm="Midi_7"
V:4 treble 
V:5 bass 
V:6 bass 
V:1
 z8 | z8 | z8 | z8 | z8 | z8 | z8 ||[K:Ab][M:4/4][K:treble] z8 | z8 | z8 | z8 | z4 G4- | %12
w: |||||||||||Sta\-|
 G2 F2 B4- | B2 A2 d4- | d2 (cB) (=A4 | B2 d4 cB | A4) G2 z2 | f2 e2 (d c) B2- | %18
w: * bat ma\-|* ter do\-|* lo\- * ro\-||* sa|Jux- ta cru\- * cem|
 B (_GF)e (ed/c/) d2 | z8 | z8 | c3 d (c B2) c | (B A2) A G2 z2 | c6 c2 | (c4 =B2) c2 | %25
w: * la\- * cry- mo\- * * sa,|||Dum pen- de\- * bat|Fi\- * li- us,|dum pen-|de\- * bat|
 (c2 =B>)c c2 z2 | z8 | z4 c4- | c2 =B2 e4- | e2 =d2 g4- | g2 f2 (=B4 | c4) =B2 z2 | z4 f2 e2 | %33
w: Fi\- * li- us.||Sta\-|* bat ma\-|* ter do\-|* lo- ro\-|* sa,|Jux- ta|
 d2 =d2 e2 _d2 | (c4 d2 c2 | B4 c2 B2 | A4) G2 z2 | z (BA)G AA z2 | z (cB)A (G=ef)B | %39
w: cru- cem la- cry-|mo\- * *||* sa,|Dum * pen- de- bat,|dum * pen- de\- * * bat|
 (A2 G>)F F2 z2 | z (dc)=E (F/E/)F z2 | z8 | z4 G4- | G2 G2 G2 A2 | G3 F F2 z2 | %45
w: Fi\- * li- us,|do\- * lo- ro\- * sa,||Dum|* pen- de- bat|Fi- li- us.|
 z8[Q:1/4=71][Q:1/4=70][Q:1/4=69][Q:1/4=68] | %46
w: |
[Q:1/4=67] z8[Q:1/4=66][Q:1/4=65][Q:1/4=64][Q:1/4=64] |] %47
w: |
V:2
 z8 | z8 | z8 | z8 | z8 | z8 | z8 ||[K:Ab][M:4/4][K:treble] z8 | z8 | z8 | z8 | F6 =E2 | A6 G2 | %13
w: |||||||||||Sta- bat|ma- ter|
 c6 B2 | (=E4 _E2 DC | D3 F =E4 | F4) =E2 z2 | z8 | z8 | E2 d2 (cB) A2- | A (FE)d (dc/B/) c2 | %21
w: do- lo-|ro\- * * *||* sa|||Jux- ta cru\- * cem|* la\- * cry- mo\- * * sa,|
 A3 B (A G2) A | F3 F =E2 z2 | z4 =D4- | D2 =D2 D2 E2 | =D2- D>C C2 z2 | z8 | z8 | =D6 C2 | F6 E2 | %30
w: Dum pen- de\- * bat|Fi- li- us,|dum|* pen- de- bat|Fi\- * li- us.|||Sta- bat|ma- ter|
 A6 (GF) | E4 =D2 z2 | c2 B2 A2 =A2 | B2 _A2 _G2 =G2 | A2 G2 (F4 | G2 F2 =E4 | F4) =E2 z2 | %37
w: do- lo\- *|ro- sa,|Jux- ta cru- cem,|jux- ta cru- cem|la- cry- mo\-||* sa,|
 z (GF)=E FF z2 | z (AG)F (=EGA)F | (F2 =E>)F F2 z2 | z8 | z (dc)=E (F/E/)F z2 | F6 F2 | %43
w: Dum * pen- de- bat,|dum * pen- de\- * * bat|Fi\- * li- us,||la- * cry- mo\- * sa,|Dum pen-|
 (F4 =E2) F2 | (F2 =E)F F2 z2 | z8 | z8 |] %47
w: de\- * bat|Fi\- * li- us.|||
V:3
[K:Ab]"^Stabat Mater""^Giovanni Battista Pergolesi\n(1710-36)" z4 g4- | g2 f2 b4- | b2 a2 d'4- | %3
 d'2 c'b =a2 c'2- | c'2 b2 Gbg=e | C[GB][FA][=EG] Ac'af | C[Ac][GB][FA] [=EG][=eg][fa][GB] || %7
 A2 G2 z [fa] z [fa] | z [Bd] [Ac][=EG] F[fa] z [fa] | z [Bd] [Ac][=EG] F/f/=e/g/ f/c/d/B/ | %10
 [FA]2 [=EG]2 FC A,2 | z4 G4- | G2 F2 B4- | B2 A2 d4- | d2 cB !courtesy!_e2 dc | d3 f =e4 | %16
 x4 [=EG]2 z2 | f2 e2 dc B2- | B_GFe- ed/c/dd | E2 d2 cB A2 | AAEd- dc/B/ cc | x8 | b a3 g2 z2 | %23
 z4 =d4- | d6 e2 | [ce]2 [=Bd]2 z [ce] z [ce] | z [FA][EG][=B,=D] =C[ce] z [ce] | %27
 z [FA][EG][=B,=D] C2 x2 | d6 c2 | f6 e2 | =a6 gf | [Ece][Ece][=Ace][Ace] [=D=B=d]2 z2 | %32
 c'2 b2 [fa]2 [e=a]2 | [db]2 [=d!courtesy!_a]2 [e_g]2 [_d=g]2 | a2 g2 f4 | g2 f2 =e4 | %36
 [CAf][=DFA][DFA][DFA] [=EG]_bg=e | C[GB][FA][=EG] [FA]c'af | C[Ac][GB][FA] [=EG][=eg][fa][FB] | %39
 [FA][FA][=EG][EG] z [fa] z [fa] | z [Bd][Ac][=EG] F[fa] z [fa] | z [Bd][Ac][=EG] F2 z2 | z4 G4 | %43
 G6 [CA]2 | G4 F[fa] z [fa] | z [Bd][Ac][=EG] F[fa] z [fa] | z [Bd][Ac][=EG] F4 |] %47
V:4
[K:Ab] f6 =e2 | a6 g2 | c'6 b2 | =e4 _e2 dc | d2 f2 =e2 z2 | x4 F2 z2 | x8 || FF=EE x4 | x8 | %9
 x4 x x x G | x8 | F6 =E2 | A4 x2 G2 | c4 x2 B2 | =e4 =A4 | B2 d2 d2 cB | [Af][FA][FA][FA] x2 z2 | %17
 z2 c3 =ABF | _G B2 =A F4 | x2 B3 G AE | F F2 G E2 z2 | [ac']3 [bd'] [ac'] [gb]2 [ac'] | %22
 f4 =e2 z2 | c8- | c4 =B2 [Gc]2 | G4 x4 | x8 | x4 c4- | c2 =B2 e4- | e2 =d2 g4- | g2 f2 =B4 | x8 | %32
 x8 | x8 | c4 d2 c2 | B4 c2 B2 | x8 | x3 x4 x | x8 | x8 | x8 | x8 | F8 | [=DF]4 [C=E]2 F2- | %44
 F2 =E2 x4 | x8 | x8 |] %47
V:5
[K:Ab] z8 | C4 E4- | E2 A2 F2 B2 | G4 C4 | D4 C2 z2 | z x x2 x2 z2 | z x x2 x4 || x4 x z A,, z | %8
 B,, z C, z x z A,, z | B,, z C, z x4 | x4 x2 z2 | x8 | C4 E4- | E2 A4 G2- | G4 C4 | F3 B, G4 | %16
 F,,F,=B,,B,, C,D,C,_B,, | =A,,G,,A,,F,, B,,C,D,B,, | E,,E,D,C, B,,B,B,!courtesy!_A, | %19
 G,F,G,E, A,B,CA, | x8 | x2 F,,2 z x x2 | z x x2 C,2 z2 | _E4 F4 | =A,4 G,2 x x | %25
 G,G,G,,G,, C, z x z | x z x z x z x z | x z x z x4 | G,,=A,,=B,,G,, x4 | B,6 C2- | C2 =D6 | %31
 C,C,^F,,F,, G,, G, G, !courtesy!=F, | C6 F2- | F4 E4- | E4 D4- | D4 C4 | x8 | x8 | x8 | %39
 x4 x z A,, z | B,, z C, z x z A,, z | B,, z C, z F,,2 z2 | A,4 x4 | =B,,B,,B,,B,, C,_B,,A,,B,, | %44
 [C,C]4 F, z A,, z | B,, z C, z D, z A,, z | B,, z C, z [F,,F,]4 |] %47
V:6
[K:Ab] F,G,A,F, C,=D,=E,C, | F,G,A,F, E,F,G,E, | A,B,CA, B,CDB, | CB,A,G, F,_G,F,E, | %4
 D,C,D,B,, C,2 z2 | z [C,C][C,C][C,C] [C,C]2 z2 | z [C,C][C,C][C,C] [C,C][B,D][A,C][B,=E] || %7
 CCC,C, D, z x z | x z x z D, z x z | x z x z D[B,D][A,C]B, | CCC,C, F,2 z2 | F,G,A,F, C,=D,=E,C, | %12
 F,G,A,F, !courtesy!_E,F,G,E, | A,B,CA, B,CDB, | CB,A,G, F,_G,F,E, | D,C,D,B,, C,B,,A,,G,, | x8 | %17
 x8 | x8 | x8 | D,DCB, A, A,A,G, | F,F, x2 z G, =E,2 | z F,=B,,B,, x2 z2 | C,=D,E,C, F,G,A,G, | %24
 ^F,F,F,F, G,G, E,=F, | x x x4 E, z | F, z G, z A, z E, z | F, z G, z C,=D,E,C, | x2 x2 C,=D,E,C, | %29
 B,,C,=D,B,, E,F,G,E, | F,G,A,F, G,F,E,=D, | x8 | =E,4 F,4 | B,4 E,4 | A,4 D,4 | G,4 C,4 | %36
 C,=B,,B,,B,, C,2 z2 | z [C,C][C,C][C,C] [C,C]2 z2 | z [C,C][C,C][C,C] [C,C][B,D][A,C][B,D] | %39
 CCC,C, D, z x z | x z x z D, z x z | x z x z x2 z2 | F,G,A,F, B,,C,D,C, | x8 | x8 | x8 | x8 |] %47

